X: 25
P: Longways for as many as will
M: C|
L: 1/8
K: Bb
f2 |\
d2B2 c2A2 | B3A G2AB | c2A2 B2c2 | A2 F4 A2 |\
z |\
f3f/f/ f2f2 | f3f/f/ f2f2 | g3f gab2 | a3g f2d2 |\
g3g/g/ g2g2 | a3a/a/ a2gf | b2b2 b3a | b6 |]

